X:520
T:Old Home Place
C:Dean Webb - Arr. Ricky Skaggs
N:From "Ricky Skaggs, Live at the Charleston Music Hall" TablEdited by Larry Tanner
L:1/8
Q:1/4=220
M:4/4
K:C
z2 F2 G2 _B2 | "Bb"z{^c}d2F d3F | "D7"^Fd3 c2 cG | "Eb"^DF G_B ^c=c BG | "Bb"F6 ^D=D | 
D^D FA _Bc df | gf ^ga ga f^c | "F"df dc A^G AG | F2 FF G2 _B2 | "Bb"dF _Bd cB d2 | 
"D7"dF _Bd c2 dc | "Eb"^DF G_B cB ^cd | "Bb"_BG FG B^c df | g_b2^g2=g2f | "F"gf ^cd _BG FG | 
"Bb"_B2 BB GF D^D | _B,2 ^CD =CG, A,B, | z3B, CF G_B | z8 | z8 | z8 | z8 | z8 | 
z8 | 


